X:1
T:Selma, SM
T:Selma, SM
T:Adapted by Robert Archibald Smith, 1825
T:Public Domain Courtesy of the Cyber Hymnal™
C:Adapted by Robert Archibald Smith, 1825
Z:Public Domain
Z:Courtesy of the Cyber Hymnal™
%%score ( 1 2 ) ( 3 4 )
L:1/8
Q:1/4=115
M:4/4
K:Eb
V:1 treble 
V:2 treble 
V:3 bass 
V:4 bass 
V:1
 [B,E]2 | [EG]2 [DF]2 E2 (FG) | [DG]6 [EB]2 | [Ec]2 [EB]2 [EG]2 [DB]>[Cc] | [Cc]6 [Ec]2 | %5
 B2 ([Ac][Ge]) [Ge]2 B2 | [Ec]2 [EG]2 !fermata![B,F]2 [CE]2 | (FG) [EB]2 [EF]2 [DF]2 | E6 |] %9
V:2
 x2 | x4 E2 D2 | x8 | x8 | x8 | B2 x2 B2 x2 | x8 | D2 x6 | E6 |] %9
V:3
 [E,G,]2 | [E,B,]2 [B,,B,]2 [C,G,]2 [B,,B,]2 | [G,,B,]6 [G,B,]2 | A,2 [G,B,]2 [E,B,]2 [G,B,]>A, | %4
 A,6 [A,C]2 | [G,E]2 ([A,E] C) C2 [G,E]2 | [A,C]2 [E,C]2 !fermata![D,F,]2 [C,G,]2 | %7
 [B,,B,]2 [G,,B,]2 [A,,C]2 [B,,B,]2 | [E,G,]6 |] %9
V:4
 x2 | x8 | x8 | A,2 x7/2 A,/ x2 | A,6 x2 | x3 C C2 x2 | x8 | x8 | x6 |] %9

